dist/svgs/core-ui-icons/free/cil-gamepad.svg

<svg xmlns="http://www.w3.org/2000/svg" viewBox="0 0 512 512"><path d="M368 168h-96v-64h176a24.027 24.027 0 0024-24V16h-32v56H264a24.027 24.027 0 00-24 24v72h-96A128.145 128.145 0 0016 296v100.953A91.15 91.15 0 00107.047 488h1.8a90.807 90.807 0 0069.953-32.76L231.5 392h48.628l52.666 68.465A91.046 91.046 0 00496 404.953V296a128.145 128.145 0 00-128-128zm96 236.953a59.047 59.047 0 01-105.849 36L295.878 360h-79.372l-62.294 74.754A58.893 58.893 0 01108.85 456h-1.8A59.113 59.113 0 0148 396.953V296a96.108 96.108 0 0196-96h224a96.108 96.108 0 0196 96z"/><path d="M360 248h32v32h-32zm0 80h32v32h-32zm-40-40h32v32h-32zm80 0h32v32h-32zm-248-40h-32v40H80v32h40v40h32v-40h40v-32h-40v-40z"/></svg>

<svg xmlns="http://www.w3.org/2000/svg" viewBox="0 0 512 512">
  <path fill="var(--ci-primary-color, currentColor)" d="M368,168H272V104H448a24.027,24.027,0,0,0,24-24V16H440V72H264a24.027,24.027,0,0,0-24,24v72H144A128.145,128.145,0,0,0,16,296V396.953A91.15,91.15,0,0,0,107.047,488h1.8A90.807,90.807,0,0,0,178.8,455.24l52.7-63.24h48.628l52.666,68.465A91.046,91.046,0,0,0,496,404.953V296A128.145,128.145,0,0,0,368,168Zm96,236.953a59.047,59.047,0,0,1-105.849,36L295.878,360H216.506l-62.294,74.754A58.893,58.893,0,0,1,108.85,456h-1.8A59.113,59.113,0,0,1,48,396.953V296a96.108,96.108,0,0,1,96-96H368a96.108,96.108,0,0,1,96,96Z" class="ci-primary"/>
  <rect width="32" height="32" x="360" y="248" fill="var(--ci-primary-color, currentColor)" class="ci-primary"/>
  <rect width="32" height="32" x="360" y="328" fill="var(--ci-primary-color, currentColor)" class="ci-primary"/>
  <rect width="32" height="32" x="320" y="288" fill="var(--ci-primary-color, currentColor)" class="ci-primary"/>
  <rect width="32" height="32" x="400" y="288" fill="var(--ci-primary-color, currentColor)" class="ci-primary"/>
  <polygon fill="var(--ci-primary-color, currentColor)" points="152 248 120 248 120 288 80 288 80 320 120 320 120 360 152 360 152 320 192 320 192 288 152 288 152 248" class="ci-primary"/>
</svg>
